src/extras-unicode/symbol-other/2B22.svg

<svg id="emoji" viewBox="0 0 72 72" xmlns="http://www.w3.org/2000/svg">
  <g id="grid">
    <path fill="#b3b3b3" d="M68,4V68H4V4H68m4-4H0V72H72V0Z"/>
    <path fill="none" stroke="#00a5ff" stroke-miterlimit="10" stroke-width="0.1" d="M12.923,10.9583H59.0769A1.9231,1.9231,0,0,1,61,12.8814V59.0352a1.9231,1.9231,0,0,1-1.9231,1.9231H12.9231A1.9231,1.9231,0,0,1,11,59.0352V12.8813A1.923,1.923,0,0,1,12.923,10.9583Z"/>
    <rect x="16" y="4" rx="2.2537" width="40" height="64" fill="none" stroke="#00a5ff" stroke-miterlimit="10" stroke-width="0.1"/>
    <rect x="16" y="4" rx="2.2537" width="40" height="64" transform="translate(72) rotate(90)" fill="none" stroke="#00a5ff" stroke-miterlimit="10" stroke-width="0.1"/>
    <circle cx="36" cy="36" r="29" fill="none" stroke="#00a5ff" stroke-miterlimit="10" stroke-width="0.1"/>
  </g>
  <g id="color"/>
  <g id="line">
    <path stroke="#000000" stroke-width="2" d="M35,7.577 C35.619,7.22 36.381,7.22 37,7.577 L60.115,20.923 C60.734,21.28 61.115,21.94 61.115,22.655 L61.115,49.345 C61.115,50.06 60.734,50.72 60.115,51.077 L37,64.423 C36.381,64.78 35.619,64.78 35,64.423 L11.885,51.077 C11.266,50.72 10.885,50.06 10.885,49.345 L10.885,22.655 C10.885,21.94 11.266,21.28 11.885,20.923 L35,7.577 z"/>
  </g>
</svg>

<svg viewBox="0 0 72 72" xmlns="http://www.w3.org/2000/svg"><path fill="#b3b3b3" d="M68 4v64H4V4h64m4-4H0v72h72V0z"/><path fill="none" stroke="#00a5ff" stroke-miterlimit="10" stroke-width=".1" d="M12.923 10.958h46.154A1.923 1.923 0 0161 12.881v46.154a1.923 1.923 0 01-1.923 1.923H12.923A1.923 1.923 0 0111 59.035V12.881a1.923 1.923 0 011.923-1.923z"/><rect x="16" y="4" rx="2.254" width="40" height="64" fill="none" stroke="#00a5ff" stroke-miterlimit="10" stroke-width=".1"/><rect x="16" y="4" rx="2.254" width="40" height="64" transform="rotate(90 36 36)" fill="none" stroke="#00a5ff" stroke-miterlimit="10" stroke-width=".1"/><circle cx="36" cy="36" r="29" fill="none" stroke="#00a5ff" stroke-miterlimit="10" stroke-width=".1"/><path d="M35 7.577a2.001 2.001 0 012 0l23.115 13.346c.619.357 1 1.017 1 1.732v26.69c0 .715-.381 1.375-1 1.732L37 64.423a2.001 2.001 0 01-2 0L11.885 51.077a1.999 1.999 0 01-1-1.732v-26.69c0-.715.381-1.375 1-1.732L35 7.577z" stroke-linecap="round" stroke-miterlimit="10" stroke-width="6" stroke="#fff" fill="none" stroke-linejoin="round"/><path stroke="#000" stroke-width="2" d="M35 7.577a2.001 2.001 0 012 0l23.115 13.346c.619.357 1 1.017 1 1.732v26.69c0 .715-.381 1.375-1 1.732L37 64.423a2.001 2.001 0 01-2 0L11.885 51.077a1.999 1.999 0 01-1-1.732v-26.69c0-.715.381-1.375 1-1.732L35 7.577z"/></svg>
